X: 15179
T: Gillan's Apples In Winter
R: jig
M: 6/8
K: Dmajor
|:dAF FEF|FEF F2 B|AFE EFE|~E3 EFA|
dAF FEF|DFA d2 e|fed cdB|1 cA^G ABc:|2 cA^G A2 B||
|:cAe cAe|cAc edc|dBf dBf|dBd fed|
cAe cAe|~c3 efg|fed cdB|1 cA^G A2 B:|2 cA^G A2 d||
|:cBA BAF|dAF D2 d|cBA BAF|AFE E2 d|
cBA BAF|DFA d2 e|fed cdB|1 cA^G A2 d:|2 cA^G A2 B||
|:cAA eAA|fAA edc|dBB fBB|~f3 fed|
cAA eAA|fAA efg|fed cdB|1 cA^G A2 B:|2 cA^G ABc||

